components/Common/Svg/svgs/enterpriseMobileAppDevelopment2.svg

<svg width="90" height="90" viewBox="0 0 90 90" fill="none" xmlns="http://www.w3.org/2000/svg">
<circle opacity="0.7" cx="45" cy="45" r="45" fill="#FFE603"/>
<path d="M38.85 34L35.25 34C34.0074 34 33 34.9987 33 36.2307V60.7689C33 62.0009 34.0074 62.9996 35.25 62.9996H48.75C49.9926 62.9996 51 62.0009 51 60.7689V48.4998" stroke="#161616" stroke-width="2" stroke-linecap="round" stroke-linejoin="round"/>
<path d="M48.657 44.388L47.2695 45.4529C47.195 45.5103 47.1084 45.5487 47.0166 45.565C46.9248 45.5813 46.8305 45.575 46.7416 45.5467C46.3118 45.409 45.8949 45.2324 45.4958 45.0191C45.4131 44.9747 45.342 44.9108 45.2882 44.8328C45.2344 44.7547 45.1996 44.6647 45.1865 44.5701L44.9412 42.8124C44.8477 42.7276 44.7562 42.6394 44.6666 42.5477C44.577 42.4561 44.4908 42.3623 44.4079 42.2665L42.6912 42.0152C42.5989 42.0019 42.5111 41.9663 42.4349 41.9113C42.3588 41.8564 42.2964 41.7838 42.2531 41.6994C42.0444 41.2909 41.8716 40.8643 41.7366 40.4245C41.7089 40.3333 41.7027 40.2367 41.7186 40.1425C41.7345 40.0484 41.772 39.9595 41.8281 39.8832L42.8687 38.4627C42.8612 38.3351 42.8575 38.2064 42.8574 38.0768C42.8574 37.9472 42.8612 37.8185 42.8688 37.6908L41.8284 36.2704C41.7724 36.1941 41.7349 36.1054 41.719 36.0114C41.7031 35.9175 41.7092 35.821 41.7368 35.7299C41.8714 35.29 42.0439 34.8633 42.2523 34.4546C42.2956 34.37 42.358 34.2972 42.4343 34.2422C42.5105 34.1871 42.5985 34.1514 42.6909 34.138L44.4079 33.8869C44.4908 33.7912 44.577 33.6975 44.6665 33.6058C44.756 33.5142 44.8476 33.4259 44.9412 33.3411L45.1867 31.5837C45.1997 31.4892 45.2345 31.3993 45.2881 31.3214C45.3418 31.2434 45.4128 31.1796 45.4952 31.1352C45.8942 30.9216 46.311 30.7447 46.7406 30.6066C46.8297 30.5781 46.9241 30.5718 47.0161 30.588C47.108 30.6043 47.1948 30.6427 47.2694 30.7001L48.657 31.7654C48.7817 31.7578 48.9074 31.7539 49.034 31.7539C49.1607 31.7539 49.2864 31.7577 49.4111 31.7655L50.7987 30.7005C50.8731 30.6432 50.9598 30.6048 51.0516 30.5885C51.1434 30.5722 51.2377 30.5784 51.3266 30.6067C51.7563 30.7445 52.1733 30.9211 52.5724 31.1344C52.6551 31.1788 52.7262 31.2426 52.78 31.3207C52.8338 31.3987 52.8686 31.4888 52.8817 31.5833L53.127 33.341C53.2205 33.4259 53.312 33.5141 53.4016 33.6057C53.4911 33.6974 53.5774 33.7911 53.6603 33.8869L55.377 34.1382C55.4693 34.1516 55.5571 34.1872 55.6333 34.2421C55.7094 34.297 55.7717 34.3697 55.8151 34.4541C56.0238 34.8625 56.1966 35.2892 56.3315 35.729C56.3593 35.8201 56.3655 35.9168 56.3496 36.0109C56.3337 36.105 56.2962 36.1939 56.2401 36.2703L55.1994 37.6907C55.2069 37.8184 55.2107 37.947 55.2108 38.0766C55.2108 38.2063 55.207 38.335 55.1994 38.4627L56.2398 39.8831C56.2958 39.9593 56.3333 40.048 56.3492 40.142C56.3651 40.236 56.359 40.3324 56.3314 40.4235C56.1968 40.8634 56.0243 41.2902 55.8159 41.6988C55.7726 41.7834 55.7102 41.8562 55.6339 41.9113C55.5577 41.9663 55.4697 42.002 55.3773 42.0154L53.6603 42.2665C53.5774 42.3622 53.4912 42.4559 53.4017 42.5476C53.3122 42.6393 53.2206 42.7275 53.127 42.8124L52.8815 44.5698C52.8685 44.6642 52.8337 44.7541 52.78 44.8321C52.7264 44.9101 52.6554 44.9739 52.573 45.0182C52.174 45.2319 51.7572 45.4088 51.3276 45.5469C51.2385 45.5753 51.1441 45.5817 51.0521 45.5654C50.9602 45.5491 50.8733 45.5107 50.7988 45.4533L49.4112 44.388C49.2865 44.3957 49.1608 44.3996 49.0342 44.3996C48.9075 44.3996 48.7818 44.3957 48.657 44.388Z" stroke="#161616" stroke-width="1.90476" stroke-linecap="round" stroke-linejoin="round"/>
<path fill-rule="evenodd" clip-rule="evenodd" d="M49.0347 40.6812C47.6103 40.6812 46.417 39.4921 46.417 37.9771C46.417 36.4621 47.6103 35.2731 49.0347 35.2731C50.4591 35.2731 51.6524 36.4621 51.6524 37.9771C51.6524 39.4921 50.4591 40.6812 49.0347 40.6812ZM44.5122 37.9771C44.5122 40.5009 46.5157 42.5859 49.0347 42.5859C51.5537 42.5859 53.5571 40.5009 53.5571 37.9771C53.5571 35.4533 51.5537 33.3683 49.0347 33.3683C46.5157 33.3683 44.5122 35.4533 44.5122 37.9771Z" fill="#161616"/>
</svg>

<svg width="90" height="90" viewBox="0 0 90 90" fill="none" xmlns="http://www.w3.org/2000/svg"><circle opacity=".7" cx="45" cy="45" r="45" fill="#FFE603"/><path d="M38.85 34h-3.6A2.24 2.24 0 0 0 33 36.23V60.77a2.24 2.24 0 0 0 2.25 2.23h13.5A2.24 2.24 0 0 0 51 60.77v-12.27" stroke="#161616" stroke-width="2" stroke-linecap="round" stroke-linejoin="round"/><path d="m48.657 44.388-1.387 1.065a.58.58 0 0 1-.528.094 7.494 7.494 0 0 1-1.246-.528.594.594 0 0 1-.31-.449l-.245-1.758a6.32 6.32 0 0 1-.533-.545l-1.717-.252a.579.579 0 0 1-.438-.316 7.893 7.893 0 0 1-.516-1.274.617.617 0 0 1 .091-.542l1.04-1.42a6.665 6.665 0 0 1 0-.772l-1.04-1.42a.61.61 0 0 1-.091-.541c.134-.44.307-.867.515-1.275a.597.597 0 0 1 .439-.317l1.717-.251a6.43 6.43 0 0 1 .533-.546l.246-1.757a.61.61 0 0 1 .308-.449c.4-.213.816-.39 1.246-.528a.576.576 0 0 1 .528.093l1.388 1.065a6.197 6.197 0 0 1 .754 0l1.388-1.064a.581.581 0 0 1 .528-.094c.43.137.846.314 1.245.527a.593.593 0 0 1 .31.45l.245 1.757a6.44 6.44 0 0 1 .533.546l1.717.251a.581.581 0 0 1 .438.316c.209.408.382.835.517 1.275a.615.615 0 0 1-.092.541l-1.04 1.42a6.668 6.668 0 0 1 0 .773l1.04 1.42a.609.609 0 0 1 .091.54c-.134.44-.307.867-.515 1.276a.598.598 0 0 1-.439.316l-1.717.252a6.43 6.43 0 0 1-.533.545l-.245 1.758a.61.61 0 0 1-.309.448c-.399.214-.816.39-1.245.529a.576.576 0 0 1-.53-.094l-1.387-1.065a6.116 6.116 0 0 1-.754 0Z" stroke="#161616" stroke-width="1.905" stroke-linecap="round" stroke-linejoin="round"/><path fill-rule="evenodd" clip-rule="evenodd" d="M49.035 40.681c-1.425 0-2.618-1.189-2.618-2.704 0-1.515 1.193-2.704 2.618-2.704 1.424 0 2.617 1.19 2.617 2.704 0 1.515-1.193 2.704-2.617 2.704Zm-4.523-2.704c0 2.524 2.004 4.609 4.523 4.609 2.519 0 4.522-2.085 4.522-4.609s-2.003-4.609-4.522-4.609c-2.52 0-4.523 2.085-4.523 4.61Z" fill="#161616"/></svg>
